app/img/title-arrow.svg

<svg width="33" height="35" viewBox="0 0 33 35" fill="none" xmlns="http://www.w3.org/2000/svg">
<mask id="path-1-inside-1" fill="white">
<path fill-rule="evenodd" clip-rule="evenodd" d="M0.215914 15.708L0.215914 20.1397L23.5706 20.1397L11.9053 31.805L15.0883 34.9879L28.9694 21.1068L28.9694 21.1068L32.1523 17.9239L32.1523 17.9239L32.1523 17.9238L28.9694 14.7409L28.9694 14.7409L15.0882 0.8598L11.9053 4.04273L23.5705 15.708L0.215914 15.708Z"/>
</mask>
<path d="M0.215914 20.1397L-0.784087 20.1397L-0.784086 21.1397L0.215913 21.1397L0.215914 20.1397ZM0.215914 15.708L0.215913 14.708L-0.784086 14.708L-0.784086 15.708L0.215914 15.708ZM23.5706 20.1397L24.2777 20.8468L25.9848 19.1397L23.5706 19.1397L23.5706 20.1397ZM11.9053 31.805L11.1982 31.0979L10.4911 31.805L11.1982 32.5121L11.9053 31.805ZM15.0883 34.9879L14.3812 35.695L15.0883 36.4021L15.7954 35.695L15.0883 34.9879ZM28.9694 21.1068L29.6765 20.3997L28.9694 19.6926L28.2623 20.3997L28.9694 21.1068ZM28.9694 21.1068L28.2623 21.8139L28.9694 22.521L29.6765 21.8139L28.9694 21.1068ZM32.1523 17.9239L32.8594 18.631L33.5665 17.9239L32.8594 17.2168L32.1523 17.9239ZM32.1523 17.9239L31.4452 17.2168L30.7381 17.9239L31.4452 18.631L32.1523 17.9239ZM32.1523 17.9238L32.8594 18.6309L33.5665 17.9238L32.8594 17.2167L32.1523 17.9238ZM28.9694 14.7409L29.6765 14.0338L28.9694 13.3267L28.2623 14.0338L28.9694 14.7409ZM28.9694 14.7409L28.2623 15.448L28.9694 16.1551L29.6765 15.448L28.9694 14.7409ZM15.0882 0.8598L15.7953 0.152694L15.0882 -0.554413L14.3811 0.152694L15.0882 0.8598ZM11.9053 4.04273L11.1982 3.33563L10.4911 4.04273L11.1982 4.74984L11.9053 4.04273ZM23.5705 15.708L23.5705 16.708L25.9847 16.708L24.2776 15.0009L23.5705 15.708ZM1.21591 20.1397L1.21591 15.708L-0.784086 15.708L-0.784087 20.1397L1.21591 20.1397ZM23.5706 19.1397L0.215913 19.1397L0.215913 21.1397L23.5706 21.1397L23.5706 19.1397ZM22.8634 19.4326L11.1982 31.0979L12.6124 32.5121L24.2777 20.8468L22.8634 19.4326ZM11.1982 32.5121L14.3812 35.695L15.7954 34.2808L12.6124 31.0979L11.1982 32.5121ZM15.7954 35.695L29.6765 21.8139L28.2623 20.3997L14.3812 34.2808L15.7954 35.695ZM28.2623 21.8139L28.2623 21.8139L29.6765 20.3997L29.6765 20.3997L28.2623 21.8139ZM29.6765 21.8139L32.8594 18.631L31.4452 17.2168L28.2623 20.3997L29.6765 21.8139ZM32.8594 17.2168L32.8594 17.2168L31.4452 18.631L31.4452 18.631L32.8594 17.2168ZM32.8594 18.631L32.8594 18.6309L31.4452 17.2167L31.4452 17.2168L32.8594 18.631ZM32.8594 17.2167L29.6765 14.0338L28.2623 15.448L31.4452 18.6309L32.8594 17.2167ZM28.2623 14.0338L28.2623 14.0338L29.6765 15.448L29.6765 15.448L28.2623 14.0338ZM29.6765 14.0338L15.7953 0.152694L14.3811 1.56691L28.2623 15.448L29.6765 14.0338ZM14.3811 0.152694L11.1982 3.33563L12.6124 4.74984L15.7953 1.56691L14.3811 0.152694ZM11.1982 4.74984L22.8634 16.4151L24.2776 15.0009L12.6124 3.33563L11.1982 4.74984ZM0.215913 16.708L23.5705 16.708L23.5705 14.708L0.215913 14.708L0.215913 16.708Z" fill="white" mask="url(#path-1-inside-1)"/>
</svg>

<svg width="33" height="35" fill="none" xmlns="http://www.w3.org/2000/svg"><mask id="a" fill="#fff"><path fill-rule="evenodd" clip-rule="evenodd" d="M.216 15.708v4.432H23.57L11.905 31.805l3.183 3.183L28.97 21.107l3.183-3.183-3.183-3.183L15.09.86l-3.184 3.183L23.57 15.708H.216z"/></mask><path d="M.216 20.14h-1v1h1v-1zm0-4.432v-1h-1v1h1zM23.57 20.14l.707.707 1.707-1.707H23.57v1zM11.905 31.805l-.707-.707-.707.707.707.707.707-.707zm3.183 3.183l-.707.707.707.707.707-.707-.707-.707zM28.97 21.107l.707-.707-.707-.707-.707.707.707.707zm0 0l-.707.707.707.707.707-.707-.707-.707zm3.183-3.183l.707.707.707-.707-.707-.707-.707.707zm0 0l-.707-.707-.707.707.707.707.707-.707zm0 0l.707.707.707-.707-.707-.707-.707.707zM28.97 14.74l.707-.707-.707-.707-.707.707.707.707zm0 0l-.707.707.707.707.707-.707-.707-.707zM15.09.86l.706-.707-.707-.707-.707.707.707.707zm-3.184 3.183l-.707-.707-.707.707.707.707.707-.707zM23.57 15.708v1h2.415l-1.707-1.707-.707.707zM1.216 20.14v-4.432h-2v4.432h2zm22.355-1H.216v2H23.57v-2zm-.708.293L11.198 31.098l1.414 1.414 11.666-11.665-1.415-1.414zm-11.665 13.08l3.183 3.182 1.414-1.414-3.183-3.183-1.414 1.414zm4.597 3.182l13.882-13.881-1.415-1.414-13.88 13.88 1.413 1.415zm12.467-13.881l1.415-1.414-1.415 1.414zm1.415 0l3.182-3.183-1.414-1.414-3.183 3.183 1.415 1.414zm3.182-4.597l-1.414 1.414 1.414-1.414zm0 1.414l-1.414-1.414 1.414 1.414zm0-1.414l-3.183-3.183-1.414 1.414 3.183 3.183 1.414-1.414zm-4.597-3.183l1.415 1.414-1.415-1.414zm1.415 0L15.795.153l-1.414 1.414 13.881 13.881 1.415-1.414zM14.38.153l-3.183 3.183 1.414 1.414 3.183-3.183L14.381.153zM11.198 4.75l11.665 11.665 1.415-1.414L12.612 3.336 11.198 4.75zM.216 16.708H23.57v-2H.216v2z" fill="#fff" mask="url(#a)"/></svg>
